X: 5215
T: Broadcove Bride
R: reel
M: 4/4
K: Eminor
|:BEGB c2dc|BEGB ADFA|BEGB c2dc|Bdgf edBA|
BEGB c2dc|BEGB ADFA|BEGB c2dc|1 Bdgf e3z:|2 Bdgf e2(3DEF||
|:GEB,E AFDF|BGEG cGEG|cedc BAGB|AGFA GE~E2|
GEB,E AFDF|BGEG cGEG|cedc BAGB|AFDF E4:|

